X: 18008
T: Hughie Wentzell's
R: polka
M: 2/4
K: Dmajor
|:Ad Bc/B/|Ad Bc/B/|Ad fe|Bd fe|
Ad Bc/B/|Ad Bc/B/|Ad fe|Bc d2:|
|:Ad Ad|ce e2|A2 d>e|fe- ef/g/|
a2 g2|fe- ef/e/|fe Bc|d2 d2:|

